X: 44
T:Young Ellen of My Heart
M:4/4
L:1/8
S:Rice-Walsh manuscript
R:Air
K:G
"Andante"g|edcB AGFE|G2 AA A3 E|ABcd e2 ec|d2 ed c2 BA|
ABcd e^fge|d2 ed c2 g^f|edcB AGEF|G2 AA A3 E|
ABcd e^fge|d2 ed c2 g^f|edcB AGEF|G2 AA A2||

